X: 1
T: S'vivon
C: trad., arr. T. Traub 12-21-2003
M: 2/4
K: Dm
L: 1/8
Z: 65%
%%continueall
[| "Dm"DD "A"E2 | "Dm"FF "A"E2 | "Dm"AA G/F/E/D/ | "Gm"FF "A"E2 |
w: S'-vi-von sov sov sov Cha-nu-ka___ hu chag tov
"Dm"DD "A"E2 | "Dm"FF "Gm"G2 | "A"AAAA, | "Dm"DD D2 |]
w: Cha-nu-ka hu chag tov s'-vi-von_ sov sov sov
[| "Gm"GG GB | "Dm"AA F/E/D | "A"CC A,C | "Dm"DE F/E/D |
w: chag sim-cha_ hu la-am__ nes ga-dol ha-yam_sham__
"Gm"GG GB | "Dm"AA F/E/D | "A"CC A,C | "Dm"DD D2 |]
w: nes ga-dol ha-ya* sham__ chag sim-cha_ hu la-am
